public/icons/profile.svg

<?xml version="1.0" encoding="UTF-8"?>
<!-- This file is auto-generated from profile folder -->
<svg xmlns="http://www.w3.org/2000/svg" xmlns:xlink="http://www.w3.org/1999/xlink" width="0" height="0">
<defs>
<symbol viewBox="0 0 16 16" fill="none" id="rank-star"><path fill-rule="evenodd" clip-rule="evenodd" d="M7.99909 0.875C6.69844 4.38038 4.33813 6.71797 0.871094 8.00033C4.37862 9.29491 6.71299 11.6616 7.99909 15.125V0.875Z" fill="#534930"></path><path opacity="0.6" fill-rule="evenodd" clip-rule="evenodd" d="M7.99895 0.875C9.29961 4.38038 11.6599 6.71797 15.127 8.00033C11.6194 9.29491 9.28506 11.6616 7.99895 15.125V0.875Z" fill="#534930"></path></symbol>
<symbol viewBox="0 0 292 118" fill="none" id="rankcard-bg"><path d="M291.5 102V27.2418C291.5 18.6822 284.579 11.7418 276.017 11.7418H214.756C211.002 11.7418 208.53 10.0369 206.089 7.85643C205.609 7.42777 205.129 6.97822 204.639 6.52002C202.656 4.66522 200.522 2.66852 197.666 1.34019C196.234 0.674421 194.661 0.5 193.154 0.5H103.623C102.266 0.5 100.843 0.650202 99.5454 1.25704C97.9168 2.01888 96.4162 3.07319 94.9689 4.20745C94.2843 4.74398 93.6068 5.30227 92.9327 5.85783L92.8163 5.95375C92.1019 6.54238 91.3903 7.12693 90.6665 7.68772C87.7686 9.93323 84.7436 11.7418 80.9003 11.7418H15.9889C7.42801 11.7418 0.5 18.6819 0.5 27.2419V102C0.5 110.56 7.43959 117.5 16 117.5H276C284.56 117.5 291.5 110.56 291.5 102Z" fill="url(#paint0_linear_1_1288)" stroke="#D2D8E0"></path><defs><linearGradient id="paint0_linear_1_1288" x1="7.99999" y1="10.5" x2="194.056" y2="210.283" gradientUnits="userSpaceOnUse"><stop stop-color="#DDE8FF"></stop><stop offset="0.536381" stop-color="#9FBDFF"></stop><stop offset="0.74" stop-color="#5388FF"></stop></linearGradient></defs></symbol>
<symbol viewBox="0 0 290 86" fill="none" id="rankcard-inner"><path d="M0 15C0 6.71573 6.69407 0 14.9783 0C36.1284 0 72.5612 0 75.9003 0C84.6975 0 90.0923 13.4494 96.624 13.4494C103.156 13.4494 161.297 13.4494 161.297 13.4494C161.297 13.4494 188.325 13.4494 197.378 13.4494C206.431 13.4494 208.139 0 216.756 0C235.64 0 259.722 0 275.007 0C283.291 0 290 6.71573 290 15V71C290 79.2843 283.284 86 275 86H195.538H164H125.733H15C6.71572 86 0 79.2843 0 71V15Z" fill="black"></path><path d="M0 15C0 6.71573 6.69407 0 14.9783 0C36.1284 0 72.5612 0 75.9003 0C84.6975 0 90.0923 13.4494 96.624 13.4494C103.156 13.4494 161.297 13.4494 161.297 13.4494C161.297 13.4494 188.325 13.4494 197.378 13.4494C206.431 13.4494 208.139 0 216.756 0C235.64 0 259.722 0 275.007 0C283.291 0 290 6.71573 290 15V71C290 79.2843 283.284 86 275 86H195.538H164H125.733H15C6.71572 86 0 79.2843 0 71V15Z" fill="white"></path></symbol>
</defs>
</svg>

<?xml version="1.0" encoding="UTF-8"?>
<!-- This file is auto-generated from profile folder -->
<svg xmlns="http://www.w3.org/2000/svg" xmlns:xlink="http://www.w3.org/1999/xlink" width="0" height="0">
<defs>
<symbol fill="none" viewBox="0 0 16 16" id="rank-star"><path fill="#534930" fill-rule="evenodd" d="M8 .875C6.697 4.38 4.337 6.718.87 8 4.38 9.295 6.713 11.662 8 15.125z" clip-rule="evenodd"></path><path fill="#534930" fill-rule="evenodd" d="M7.999.875c1.3 3.505 3.66 5.843 7.128 7.125-3.508 1.295-5.842 3.662-7.128 7.125z" clip-rule="evenodd" opacity=".6"></path></symbol>
<symbol fill="none" viewBox="0 0 292 118" id="rankcard-bg"><path fill="url(#a)" stroke="#D2D8E0" d="M291.5 102V27.242c0-8.56-6.921-15.5-15.483-15.5h-61.261c-3.754 0-6.226-1.705-8.667-3.886-.48-.428-.96-.878-1.45-1.336-1.983-1.855-4.117-3.851-6.973-5.18-1.432-.666-3.005-.84-4.512-.84h-89.531c-1.357 0-2.78.15-4.078.757-1.628.762-3.129 1.816-4.576 2.95-.685.537-1.362 1.095-2.036 1.65l-.117.097a92 92 0 0 1-2.15 1.734c-2.897 2.245-5.922 4.054-9.766 4.054H15.99c-8.562 0-15.49 6.94-15.49 15.5V102c0 8.56 6.94 15.5 15.5 15.5h260c8.56 0 15.5-6.94 15.5-15.5z"></path><defs><linearGradient id="a" x1="8" x2="194.056" y1="10.5" y2="210.283" gradientUnits="userSpaceOnUse"><stop stop-color="#DDE8FF"></stop><stop offset=".536" stop-color="#9FBDFF"></stop><stop offset=".74" stop-color="#5388FF"></stop></linearGradient></defs></symbol>
<symbol fill="none" viewBox="0 0 290 86" id="rankcard-inner"><path fill="#000" d="M0 15C0 6.716 6.694 0 14.978 0H75.9c8.797 0 14.192 13.45 20.724 13.45h100.754c9.053 0 10.761-13.45 19.378-13.45h58.251C283.291 0 290 6.716 290 15v56c0 8.284-6.716 15-15 15H15C6.716 86 0 79.284 0 71z"></path><path fill="#fff" d="M0 15C0 6.716 6.694 0 14.978 0H75.9c8.797 0 14.192 13.45 20.724 13.45h100.754c9.053 0 10.761-13.45 19.378-13.45h58.251C283.291 0 290 6.716 290 15v56c0 8.284-6.716 15-15 15H15C6.716 86 0 79.284 0 71z"></path></symbol>
</defs>
</svg>
